X: 15969
T: Granton Fish Bowl
R: jig
M: 6/8
K: Gmajor
M:4/4
L: 1/8
d>c|:"G"B2 B3/2c/ "Am7"A3 c|"Em"B3/2G/ E/G "D"F2 E/D3/2|"Am"A2 A3/2B/ "C"c2 c/d3/2|"G"G2 G/B3/2 "D"A2 d3/2c/|
"G"B2 (3Bcd "C"e3 d|"G"g3/2d/ B/G3/2 "D"A2 B3/2A/|"Em"G2 G/B3/2 "D7"A3/2B/ d3/2c/||1 "G"B2 G2 G2 d3/2c/:|2 "G"B2 G2 G3 A||
|:"G"B2 (3BAG "C"E2 D z|"Em"E/G3/2 "D"F/A3/2 "C"G2 A3/2B/|"Am"c2 c3/2d/ "G"d/B3/2 A3/2B/|"Em7"G/D3/2 G3/2B/ "D"A2 d3/2c/|
"G"B2 (3Bcd "C"e3 d|"G"g3/2d/ B/G3/2 "D"A2 B3/2A/|"G"G2 G/B3/2 "Am"A3/2B/ "D7"d3/2c/||1 "G"B2 G2 G3 A:|2 "G"B2 G2 G2||

